X: 84
T: Marchioness of Tullibardine, The
R:March
S:MacDonald - Skye Collection
N:pg.179
M:2/4
L:1/8
K:A Mix
e/d/|cB/A/ A/A/ c/A/|c/e/A/f/ e/A/c/A/|=Gd/e/ d/=G/B/G/|B/d/=G/B/ =gB/G/|
cB/A/ A/A/ c/A/|c/e/A/f/ e/A/c/A/|B/d/=G/d/ =gB/G/|cA A:|
g|ag/f/ e/A/c/A/|c/e/A/f/ e/A/c/A/|=gf/e/ d/=G/B/G/|B/d/=G/d/ =gB/G/|
A/a/ ^g/a/ e/A/c/A/|c/e/A/f/ e/A/c/A/|B/d/=G/d/ =gB/G/|cA A>^g|
ag/f/ e/A/c/A/|c/e/A/f/ e/A/c/A/|=gf/e/ d/=G/B/G/|B/d/=G/B/ =gB/G/|
cB/c/ dc/d/|e/d/e/f/ e/A/c/A/|B/d/=G/d/ =gB/G/|{d}cA A2||


